src/renderer/assets/icon/pageRefreshDisabled-default-icon.svg

<?xml version="1.0" encoding="UTF-8"?>
<svg width="30px" height="30px" viewBox="0 0 30 30" version="1.1" xmlns="http://www.w3.org/2000/svg" xmlns:xlink="http://www.w3.org/1999/xlink">
	<!-- Generator: Sketch 57.1 (83088) - https://sketch.com -->
	<desc>Created with Sketch.</desc>
	<g id="menuBar/__icon/--refresh" stroke="none" stroke-width="1" fill="none" fill-rule="evenodd">
		<path d="M15.0256625,8 C16.4633426,8.00363212 17.8435807,8.43360079 19.0211861,9.25103347 L19.5200201,8.58179906 C19.6159588,8.44923725 19.818906,8.47501314 19.8816351,8.62598633 L19.8816351,8.62598633 L21.040279,11.4502893 C21.0993182,11.5938979 20.9886197,11.7485534 20.8336419,11.7375066 L20.8336419,11.7375066 L17.7340849,11.5202525 C17.5680372,11.5092057 17.4794784,11.3214098 17.579107,11.188848 L17.579107,11.188848 L18.137,10.438 L17.9760029,10.3300559 C17.0917263,9.77053379 16.0736079,9.47659128 15.0182826,9.47659128 L14.9555535,9.47659128 C13.5238533,9.49132036 12.1659522,10.0583903 11.1364565,11.0710152 C10.1069608,12.0836402 9.52025891,13.4276696 9.48335942,14.8563914 C9.44276999,16.3587585 10.0036422,17.7764335 11.0552776,18.8553393 C12.106913,19.9342451 13.5164734,20.527091 15.0182826,20.527091 C16.3946335,20.527091 17.7156352,20.0152551 18.737751,19.0910047 C19.7524869,18.1704366 20.3871581,16.9221462 20.5236862,15.5707522 C20.5605857,15.1951605 20.8779213,14.9116255 21.257986,14.9116255 C21.4683131,14.9116255 21.6675703,15 21.8077884,15.1546554 C21.9480064,15.3093109 22.0181154,15.5228827 21.9959758,15.7327722 C21.8188582,17.4450289 21.0107594,19.0247238 19.7266572,20.1883219 C18.4314852,21.3556023 16.7599384,22 15.0145927,22 C11.1475263,22 8,18.8590216 8,15 C8,13.1367701 8.73060986,11.3803261 10.0589914,10.0547081 C11.387373,8.72908995 13.1474786,8 15.0145927,8 L15.0256625,8 Z" id="icon--refresh" fill="#CFD0DA" fill-rule="nonzero"></path>
	</g>
</svg>

<svg width="30" height="30" xmlns="http://www.w3.org/2000/svg">
    <path d="M15.026 8a7 7 0 013.995 1.251l.499-.67a.208.208 0 01.362.045l1.158 2.824a.208.208 0 01-.206.288l-3.1-.218a.207.207 0 01-.155-.331l.558-.751-.161-.108a5.51 5.51 0 00-2.958-.853h-.062a5.509 5.509 0 00-3.82 1.594 5.486 5.486 0 00-1.653 3.785 5.473 5.473 0 001.572 4 5.494 5.494 0 003.963 1.671 5.54 5.54 0 003.72-1.436 5.494 5.494 0 001.786-3.52.741.741 0 011.472.162 6.977 6.977 0 01-2.27 4.455A7.025 7.025 0 0115.016 22C11.148 22 8 18.859 8 15c0-1.863.73-3.62 2.059-4.945A6.973 6.973 0 0115.015 8h.01z" fill="#CFD0DA"/>
</svg>
